svgs/thin/file.svg

<svg xmlns="http://www.w3.org/2000/svg" viewBox="0 0 384 512"><!--! Font Awesome Pro 6.3.0 by @fontawesome - https://fontawesome.com License - https://fontawesome.com/license (Commercial License) Copyright 2023 Fonticons, Inc. --><path d="M0 64C0 28.65 28.65 0 64 0H204.1C216.8 0 229.1 5.057 238.1 14.06L369.9 145.9C378.9 154.9 384 167.2 384 179.9V448C384 483.3 355.3 512 320 512H64C28.65 512 0 483.3 0 448V64zM368 448V179.9C368 178.6 367.9 177.3 367.8 176H248C225.9 176 208 158.1 208 136V16.24C206.7 16.08 205.4 16 204.1 16H64C37.49 16 16 37.49 16 64V448C16 474.5 37.49 496 64 496H320C346.5 496 368 474.5 368 448zM361.1 160C360.3 159 359.5 158.1 358.6 157.3L226.7 25.37C225.9 24.5 224.1 23.68 224 22.93V136C224 149.3 234.7 160 248 160H361.1z"/></svg>

<svg xmlns="http://www.w3.org/2000/svg" viewBox="0 0 384 512"><!--! Font Awesome Pro 6.4.0 by @fontawesome - https://fontawesome.com License - https://fontawesome.com/license (Commercial License) Copyright 2023 Fonticons, Inc. --><path d="M320 496c26.5 0 48-21.5 48-48V179.9c0-1.3-.1-2.6-.2-3.9H248c-22.1 0-40-17.9-40-40V16.2c-1.3-.2-2.6-.2-3.9-.2H64C37.5 16 16 37.5 16 64V448c0 26.5 21.5 48 48 48H320zm41.1-336c-.8-1-1.6-1.9-2.4-2.7L226.7 25.4c-.9-.9-1.8-1.7-2.7-2.4V136c0 13.3 10.7 24 24 24H361.1zM0 64C0 28.7 28.7 0 64 0H204.1c12.7 0 24.9 5.1 33.9 14.1L369.9 145.9c9 9 14.1 21.2 14.1 33.9V448c0 35.3-28.7 64-64 64H64c-35.3 0-64-28.7-64-64V64z"/></svg>
